X:1
T:Benedicta sit sancta et individua Trinitas
T:Jan Tollius
T:Benedicta sit sancta et individua Trinitas
C:Jan Tollius
%%score [ 1 2 3 ]
L:1/8
Q:1/4=60
M:3/4
K:C
V:1 treble nm="Soprano" snm="S"
V:2 treble nm="Tenor" snm="T"
V:3 bass nm="Bass" snm="B"
V:1
|: e4 e2 | e4 f2 | e6 | ^f4 f2 | ^f4 g2 | ^f6 | e4 e2 | e4 f2 | e6 | z6 | z d cA cc | e>e A f2 f | %12
w: Be- ne-|di- cta|sit|Be- ne-|di- cta|sit|Be- ne-|di- cta|sit||san- cta et in- di-|vi- du- a Tri- ni-|
 e6 :| f3 e d2 | c6 | e3 d c2 | B6 | d3 c _B2 | A6 | z2 c>d e>f | g>e f>f e2 | B>A ^G>A B2 | ^c6 | %23
w: tas,|nunc et sem-|per|nunc et sem-|per|nunc et sem-|per|et per in- fi-|ni- ta se- cu- la|se- cu- lo- rum, A-|men.|
 z2 c>d e>f | g>e f>f e2 | B>A ^G>A B2 | ^c6 ||[M:4/4][Q:1/4=90] A2 AG F>F E2 | A3 G F2 E2 | %29
w: et per in- fi-|ni- ta se- cu- la|se- cu- lo- rum, A-|men.|Lau- da- te Do- mi- num|om- nes gen- tes,|
 A2 c>c cc A3/2G/4F/4 | EE F>G A/B<cB/A/G/ | F>F E2 A>A A2 | EE F>G AG F2 | E2 D2 CC D>D | %34
w: lau- da- te e- um om- * *|* nes po- * * * * * * *|* pu- li: Quo- ni- am|con- fir- ma- ta est su- per|nos mi- se- ri- cor- di-|
 E2 F2 E2 AA/A/ | AA/B/ c2 c>B A/G/F | E2 F>G AG F2 | E2 A>A A2 c2 | cc A>A A3 c | c>B A>G F2 E2 | %40
w: a e- ius, et ve- ri-|tas Do- mi- ni ma- * * * *|net in _ _ ae- ter-|num: Glo- ri- a Pa-|tri et Fi- li- o et|Spi- ri- tu- i san- cto,|
 F>G A2 A2 c>c | c>c cA AF E2 | A2 A>B c>c c2 | A>G FF E2 A>B | c>B AG/F/ E4- | E4 z4 |] %46
w: si- cut e- rat in prin-|ci- pi- o, et nunc, et sem-|per, et in se- cu- la|se- cu- lo- rum, A- men. _|_ _ _ _ _ _||
V:2
|: ^c4 c2 | ^c4 d2 | ^c6 | A4 A2 | A4 _B2 | A6 | ^c4 c2 | ^c4 d2 | ^c6 | z2 z A GE | FD E>E EA- | %11
w: Be- ne-|di- cta|sit|Be- ne-|di- cta|sit|Be- ne-|di- cta|sit|san- cta et|in- di- vi- du- a Tri-|
 A/G/F/E/ F/D/ d2 d | ^c6 :| z6 | A3 G F2 | E6 | G3 F E2 | D6 | F3 E D2 | C6 | G>G A>B c>A | %21
w: * * * * * * * ni-|tas,||nunc et sem-|per|nunc et sem-|per|nunc et sem-|per|et per in- fi- ni- ta|
 ^G>A B>A G2 | A6- | A6 | G>G A>B c>A | ^G>A ^B>A G2 | A6 ||[M:4/4] z4 A2 AG | F>F E2 A3 G | %29
w: se- cu- lo- rum, A-|men.|_|et per in- fi- ni- ta|se- cu- lo- rum, A-|men.|Lau- da- te|Do- mi- num om- nes|
 F2 E2 A2 c>c | cc A3/2G/4F/4 EE F>G | A/B/c- c/B/A/G/ F>F E2 | A>A A2 EE F>G | AG F2 E2 D2 | %34
w: gen- tes, lau- da- te|e- um om- * * * nes po- *|* * * * * * * * pu- li:|Quo- ni- am con- fir- ma- ta|est su- per nos mi-|
 CC D>D E2 F2 | E2 AA/A/ AA/B/ c2 | c>B A/G/F E2 F>G | AG F2 E2 A>A | A2 c2 cc A>A | A3 c c>B A>G | %40
w: se- ri- cor- di- a e-|ius, et ve- ri- tas Do- mi- ni|ma- * * * * net in _|_ ae- ter- num: Glo- ri-|a Pa- tri et Fi- li-|o et Spi- ri- tu- i|
 F2 E2 F>G A2 | A2 c>c c>c cA | AF E2 A2 A>B | c>c c2 A>G FF | E2 A>B ^c4- | c4 z4 |] %46
w: san- cto, si- cut e-|rat in prin- ci- pi- o, et|nunc, et sem- per, et in|se- cu- la se- cu- lo- rum,|A- men. _ _|_|
V:3
|: A,4 A,2 | A,4 D,2 | A,6 | D4 D2 | D4 G,2 | D6 | A,4 A,2 | A,4 D,2 | A,6 | z D CA, CC | %10
w: Be- ne-|di- cta|sit|Be- ne-|di- cta|sit|Be- ne-|di- cta|sit|san- cta et in- di-|
 D>D A,A,>G,F,/E,/ | F,/D,/ D2 D D,/E,/F,/G,/ | A,6 :| D3 C _B,2 | A,6 | C3 _B, A,2 | G,6 | %17
w: vi- du- a Tri- * * *|* * * ni- tas, _ _ _|_|nunc et sem-|per|nunc et sem-|per|
 _B,3 A, G,2 | F,6 | F,>G, A,>B, C>A, | B,>C F,2 C,>D, | %21
w: nunc et sem-|per|et per in- fi- ni- ta|se- cu- la se- cu-|
 E,>F, E,4"^Canon 1. ad diapason inferius, contrario motu\nCanon 2. in eodem tono cantatur" | A,6 | %23
w: lo- rum, A-|men.|
 F,>G, A,>B, C>A, | B,>C F,2 C,>D, | E,>F, E,4 | A,6 ||[M:4/4] z2 A,2 A,B, C>C | D2 A,3 B, C2 | %29
w: et per in- fi- ni- ta|se- cu- la se- cu-|lo- rum, A-|men.|Lau- da- te Do- mi-|num om- nes gen-|
 D2 A,2 F,>F, F,F, | A,3/2B,/4C/4 DD C>B, A,/G,/F,- | F,/G,/A,/B,/ C>C D2 A,>A, | %32
w: tes, lau- da- te e- um|om- * * * nes po- * * * *|* * * * * pu- li: Quo- ni-|
 G,2 D>D C>B, A,B, | C2 D2 E2 FF | E>E D2 C2 D2 | A,A,/A,/ A,A,/G,/ F,2 F,>G, | %36
w: am con- fir- ma- ta est su-|per nos mi- se- ri-|cor- di- a e- ius,|et ve- ri- tas Do- mi- ni ma- *|
 A,/B,/C D2 C>B, A,B, | C2 D2 A,>A, A,2 | F,2 F,F, A,>A, A,2- | A,F, F,>G, A,>B, C2 | %40
w: * * * net in _ _ ae-|ter- num: Glo- ri- a|Pa- tri et Fi- li- o|_ et Spi- ri- tu- i san-|
 D2 C>B, A,2 A,2 | F,>F, F,>F, F,A,A,C | D2 A,2 A,>A, F,>F, | F,2 A,>B, CC D2 | A,8- | A,4 z4 |] %46
w: cto, si- cut e- rat|in prin- ci- pi- o, et nunc, et|sem- per, et in se- cu-|la se- cu- lo- rum, A-|men.|_|

